credit-card-marker-outline.svg

<svg fill="currentColor" viewBox="0 0 24 24"><path d="M13.5 18H4v-6h10.3c1-1.2 2.5-2 4.2-2 1.3 0 2.5.5 3.5 1.3V6a2 2 0 0 0-2-2H4a2 2 0 0 0-2 2v12a2 2 0 0 0 2 2h10.6c-.4-.6-.8-1.3-1.1-2M4 6h16v2H4zm14.5 6c-1.9 0-3.5 1.6-3.5 3.5 0 2.6 3.5 6.5 3.5 6.5s3.5-3.9 3.5-6.5c0-1.9-1.6-3.5-3.5-3.5m0 4.8c-.7 0-1.2-.6-1.2-1.2 0-.7.6-1.2 1.2-1.2s1.2.6 1.2 1.2c.1.6-.5 1.2-1.2 1.2"/></svg>

<svg  viewBox="0 0 24 24" fill="currentColor"><path  d="M13.5,18H4V12H14.3C15.3,10.8 16.8,10 18.5,10C19.8,10 21,10.5 22,11.3V6A2,2 0 0,0 20,4H4A2,2 0 0,0 2,6V18A2,2 0 0,0 4,20H14.6C14.2,19.4 13.8,18.7 13.5,18M4,6H20V8H4V6M18.5,12C16.6,12 15,13.6 15,15.5C15,18.1 18.5,22 18.5,22C18.5,22 22,18.1 22,15.5C22,13.6 20.4,12 18.5,12M18.5,16.8C17.8,16.8 17.3,16.2 17.3,15.6C17.3,14.9 17.9,14.4 18.5,14.4C19.1,14.4 19.7,15 19.7,15.6C19.8,16.2 19.2,16.8 18.5,16.8Z"/></svg>
